!!!!SEGMENT: pl-wn--sd-xvi-qu-273--026_gomolka-mikolaj--panie-uczyn-sad-o-mnie-a-tam-ujzrzysz-moje.krn
!!!cenid: 15xx:231
!!!COM: Gomółka, Mikołaj
!!!COM-rismid: pe30013343
!!!CDT: ~1535->1591/04/30
!!!CNT: Polish
!!!GTL: Melodiae na psalterz polski
!!!OTL: XXVI. Panie, uczyń sąd o mnie, a tam ujźrzysz moje
!!!ONB: PSALM XXVI. Iudica me domine, quoniam ego in innocentia mea ingressus sum,
!!!PDT: 1580
!!!AGN: Sacred
!!!SMS-siglum: PL-Wn
!!!SMS-shelfmark: SD XVI.Qu.273
!!!SMS-shelfwork: 026 G
!!!NIFC-rismid:
!!!ONB-nifc: Melodiae na psalterz polski
**kern	**text	**kern	**text	**kern	**text	**kern	**text
*part4	*part4	*part3	*part3	*part2	*part2	*part1	*part1
*staff4	*staff4	*staff3	*staff3	*staff2	*staff2	*staff1	*staff1
*clefF3	*	*clefC3	*	*clefC2	*	*clefC1	*
*k[]	*	*k[]	*	*k[]	*	*k[]	*
*C:	*	*C:	*	*C:	*	*C:	*
*M2/1	*	*M2/1	*	*M2/1	*	*M2/1	*
*met(C|)	*	*met(C|)	*	*met(C|)	*	*met(C|)	*
*>[A,B,B]	*	*>[A,B,B]	*	*>[A,B,B]	*	*>[A,B,B]	*
*I"BASSUS.	*	*I"TENOR.	*	*I"ALTUS.	*	*I"CANTUS.	*
=1-	=1	=1-	=1	=1-	=1	=1-	=1
*>A	*	*>A	*	*>A	*	*>A	*
1G\	PA-	1B/	PA-	1d/	PA-	1g\	PA-
2C/	-nie	2.c/	-nie,	2.e/	-nie,	2g/	-nie,
2c\	u-	.	.	.	.	2g/	u-
.	.	4d\	u-	4d/	u-	.	.
=2-	=2	=2-	=2	=2-	=2	=2-	=2
2c\	-cz(yń)	2e\	-czyń	2c/	-czyń	2a\	-cz(yń)
2B\	sąd	1d\	sąd	2g\	sąd	2b\	sąd
1A\	o	.	.	2g\	o	1cc\	o
.	.	2c/	o	2f#X\	.	.	.
=3-	=3	=3-	=3	=3-	=3	=3-	=3
2G\	mn(ie)	2d\	m(nie)	2g\	m(nie)	2b\	mn(ie)
2.A\	á	2c\	á	2e/	á	2.cc\	á
.	.	1c\	tá(m)	2fny\	tá(m)	.	.
4G\	tám	.	.	.	.	4b\	tám
1F\	uy-	.	.	1f\	uy-	1a\	uy-
=4-	=4	=4-	=4	=4-	=4	=4-	=4
.	.	2c\	uy-	.	.	.	.
2G\	-ź(rzysz)	2B/	-ź(rzysz)	2d/	-źr(zysz)	1g\	-ź(rzysz)
1D/	mo-	1A/	mo-	2.d/	mo-	.	.
.	.	.	.	.	.	2f/	mo-
.	.	.	.	4c/	-ie	.	.
=5-	=5	=5-	=5	=5-	=5	=5-	=5
2E/	-ię	2G/	-ie	2B/	Nie-	2g/	-ie
2C/	Nie-	2G/	Nie-	2c/	-win-	2e/	Nie-
4D/	-win-	4F/	-win-	2A/	-(ność:)	1f/	-win-
4E/	.	4G/	.	.	.	.	.
4F\	.	4A/	.	2d/	pó-	.	.
4G\	.	4B/	.	.	.	.	.
=6-	=6	=6-	=6	=6-	=6	=6-	=6
4A\	-ność:	4c/	-ność:	2.A/	.	2e/	-(ność:)
4B\	.	4d\	.	.	.	.	.
2c\	pó-	2e\	pó-	.	.	4c/	pó-
.	.	.	.	4B/	.	4d/	.
2c\	-ki	2e\	-ki	4c/	-ki	4e/	.
.	.	.	.	4d/	.	4f/	.
2c\	ia	2e\	ia	4e/	ia	4g/	-ki
.	.	.	.	4f\	.	4a\	ia
=7-	=7	=7-	=7	=7-	=7	=7-	=7
!!LO:PB:g=original
2B\	uf-	2d\	uf-	2g\	uf-	2b\	uf-
2A\	-ność	2c/	-ność	2f\	-ność	1cc\	-ność
1G\	swo-	1d\	swo-	2.g\	swo-	.	.
.	.	.	.	.	.	2b\	swo-
.	.	.	.	4f\	-ię	.	.
=8-	=8	=8-	=8	=8-	=8	=8-	=8
2C/	-ię	2c\	-ię	2e\	.	2cc\	-ię
=!|:	=	=!|:	=	=!|:	=	=!|:	=
*>B	*	*>B	*	*>B	*	*>B	*
*	*^	*	*^	*	*^	*	*^
4c\	W to-	Stát-	4e\	W to-	Stát-	4c/	W to-	Stát-	2g\	W to-	Stát-
4B\	.	-ku,	4d\	.	.	4d/	-bie	-ku,	.	.	.
2.A\	-bie	y	2c/	.	.	2e/	po-	y	2.cc\	-bie	-ku,
.	.	.	2.c/	-bie	-tku,	2e/	-kłá-	pra-	.	.	.
4G\	po-	pra-	.	.	.	.	.	.	4b\	.	y
=9-	=9	=9	=9-	=9	=9	=9-	=9	=9	=9-	=9	=9
2F\	-kłá-	-wdy:	.	.	.	2f\	-dáć	-wdy:	2a\	po-	pra-
.	.	.	4d\	po-	y	.	.	.	.	.	.
2E/	-dáć	.	4e\	-kłá-	pra-	2c/	.	.	2g\	-kłá-	-wdy:
.	.	.	4d\	.	-wdy:	.	.	.	.	.	.
1A\	bę-	do-	4c/	-dáć	.	2cc\	bę-	.	2e/	-dáć	.
.	.	.	4B/	bę-	do-	.	.	.	.	.	.
.	.	.	2c/	-dę	.	4b\	.	.	2f/	bę-	.
.	.	.	.	.	.	4a\	.	do-	.	.	.
=10-	=10	=10	=10-	=10	=10	=10-	=10	=10	=10-	=10	=10
2G\	-dę,	-świadcz	2d\	zá-	-świadcz	2b\	-dę,	.	2g\	-dę,	do-
1C/	zá-	.	2c/	.	.	2.g\	za-	-świadcz	2.e/	zá-	-świadcz
.	.	.	2.c/	-wźdy	.	.	.	.	.	.	.
.	.	.	.	.	.	4f\	.	.	4f/	-wźdy	.
2C/	-wżdy	mię,	.	.	.	4e\	-wżdy	.	2g\	mi	.
.	.	.	4B/	mi	mię,	4d/	.	.	.	.	.
=11-	=11	=11	=11-	=11	=11	=11-	=11	=11	=11-	=11	=11
2F\	mi	pá-	2A/	.	.	2c/	.	mię,	2a\	do-	mię
2F\	dos-	-nie.	2A/	do-	pá-	4f\	mi	.	2a\	-stá-	pá-
.	.	.	.	.	.	4e/	do-	pá-	.	.	.
1G\	-tá-	.	4B/	-stá-	.	4d/	.	.	1g\	-nie	-nie.
.	.	.	2c/	.	-nie.	2e/	-stá-	.	.	.	.
.	.	.	4B/	-nie.	.	4d/	.	-nie.	.	.	.
=12-	=12	=12	=12-	=12	=12	=12-	=12	=12	=12-	=12	=12
!LO:N:vis=00.	!	!	!	!	!	!	!	!	!	!	!
00C/	-nie	.	00c\	.	.	00e\	-nie.	.	00g\;	.	.
==:|!	==	==	==:|!	==	==	==:|!	==	==	==:|!	==	==
*-	*-	*-	*-	*-	*-	*-	*-	*-	*-	*-	*-
!!!RDF**kern: l = terminal long
!!!system-decoration: s1,s2,s3,s4
!!!ENC: Marta Lawrence
!!!END: 2020-02-07
!!!URL-scan: https://polona.pl/item/melodiae-na-psalterz-polski,Nzk3MTM4ODQ/73 Scan on Polona
!!!IIIF: https://polona.pl/iiif/item/Nzk3MTM4ODQ/manifest.json
